Suru++-Ubuntu/apps/scalable/pia-manager.svg

<svg xmlns="http://www.w3.org/2000/svg" xmlns:xlink="http://www.w3.org/1999/xlink" width="256" height="256" version="1.1" viewBox="0 0 67.73 67.73">
 <defs>
  <linearGradient id="linearGradient1108" x1="296" x2="296" y1="-212" y2="202.4" gradientUnits="userSpaceOnUse" xlink:href="#linearGradient1013"/>
  <linearGradient id="linearGradient1013">
   <stop offset="0" style="stop-color:#ffffff"/>
   <stop style="stop-color:#ffffff;stop-opacity:0.09803922" offset=".135"/>
   <stop style="stop-color:#ffffff;stop-opacity:0" offset="1"/>
  </linearGradient>
  <clipPath id="clipPath1082-3-3675" clipPathUnits="userSpaceOnUse">
   <path d="M 361.9375,-212 C 507.2348,-212 528,-191.28677 528,-46.125 V 70.125 C 528,215.28618 507.2348,236 361.9375,236 H 214.0625 C 68.7652,236 48,215.28618 48,70.125 V -46.125 C 48,-191.28677 68.7652,-212 214.0625,-212 Z" style="fill:#8c59d9"/>
  </clipPath>
  <filter style="color-interpolation-filters:sRGB" id="filter910" width="1.046" height="1.05" x="-.02" y="-.03">
   <feGaussianBlur stdDeviation="2.32"/>
  </filter>
  <filter style="color-interpolation-filters:sRGB" id="filter4569" width="1.023" height="1.025" x="-.01" y="-.01">
   <feGaussianBlur stdDeviation="1.16"/>
  </filter>
 </defs>
 <g transform="translate(0,-229.26666)">
  <g style="enable-background:new" transform="matrix(0.12974173,0,0,0.12974173,3.8344818,227.85345)">
   <path d="m 301.90773,44.402363 c 148.15296,0 169.32628,21.120327 169.32628,169.135097 v 118.53478 c 0,148.01417 -21.17332,169.1351 -169.32628,169.1351 H 151.12641 c -148.1529701,0 -169.32628,-21.12093 -169.32628,-169.1351 V 213.53746 c 0,-148.01477 21.1733099,-169.135097 169.32628,-169.135097 z" style="opacity:0.2;fill:none;stroke:#000000;stroke-width:8.15723133;stroke-linecap:round;stroke-linejoin:round"/>
   <path d="m 162.53675,3.5680001 c 72.64865,0 83.03125,10.3566149 83.03125,82.9375049 v 58.125005 c 0,72.58059 -10.3826,82.9375 -83.03125,82.9375 H 88.599254 C 15.9506,227.56801 5.568,217.2111 5.568,144.63051 V 86.505505 c 0,-72.58089 10.3826,-82.9375049 83.031254,-82.9375049 z" transform="matrix(2.0393079,0,0,2.0393079,-29.55473,37.126102)" style="opacity:0.1;filter:url(#filter4569)"/>
   <path style="opacity:0.2;filter:url(#filter910)" d="m 162.53675,5.5680001 c 72.64865,0 83.03125,10.3566149 83.03125,82.9375049 v 58.125005 c 0,72.58059 -10.3826,82.9375 -83.03125,82.9375 H 88.599254 C 15.9506,229.56801 5.568,219.2111 5.568,146.63051 V 88.505505 c 0,-72.58089 10.3826,-82.9375049 83.031254,-82.9375049 z" transform="matrix(2.0393079,0,0,2.0393079,-29.55473,37.126102)"/>
   <path style="fill:#f7f7f7" d="m 301.90773,44.402363 c 148.15296,0 169.32628,21.120327 169.32628,169.135097 v 118.53478 c 0,148.01417 -21.17332,169.1351 -169.32628,169.1351 H 151.12641 c -148.1529701,0 -169.32628,-21.12093 -169.32628,-169.1351 V 213.53746 c 0,-148.01477 21.1733099,-169.135097 169.32628,-169.135097 z"/>
   <path d="M 361.9375,-212 C 507.2348,-212 528,-191.28677 528,-46.125 V 70.125 C 528,215.28618 507.2348,236 361.9375,236 H 214.0625 C 68.7652,236 48,215.28618 48,70.125 V -46.125 C 48,-191.28677 68.7652,-212 214.0625,-212 Z" clip-path="url(#clipPath1082-3-3675)" transform="matrix(1.0196539,0,0,1.0196539,-67.14326,260.569)" style="opacity:0.5;fill:none;stroke:url(#linearGradient1108);stroke-width:8;stroke-linecap:round;stroke-linejoin:round"/>
   <g transform="matrix(4.4817672,0,0,4.4817672,-56.548536,252.59787)" style="stroke:#ffffff">
    <g transform="translate(-1.4146989,6.1396679)">
     <rect width="16.576" height="35.914" x="81.15" y="-12.68" rx="4.144" ry="3.991" style="fill:#4bb749"/>
     <rect width="16.576" height="35.914" x="31.42" y="-12.68" rx="4.144" ry="3.991" style="fill:#4bb749"/>
     <path d="m 43.535492,-12.681525 h 42.077143 3.825198 v 45.85984 c 0,2.142701 -1.706038,3.867695 -3.825198,3.867695 H 72.224457 L 66.486666,28.758088 H 62.661469 L 56.923676,37.04601 H 43.535492 c -2.119153,0 -3.825191,-1.724994 -3.825191,-3.867695 v -45.85984 z" style="fill:#4bb749"/>
     <ellipse cx="64.574" cy="-15.168" rx="24.864" ry="25.14" style="fill:#4bb749"/>
     <path d="m 64.574066,-32.020009 c -9.154587,0 -16.575846,7.098874 -16.575846,15.855778 0.0067,0.663004 0.05655,4.297922 0.149721,4.954931 h 32.85627 c 0.09183,-0.657095 0.140493,-4.292009 0.145683,-4.954931 0,-8.756904 -7.421258,-15.855778 -16.575844,-15.855778 z" style="fill:#ffffff"/>
     <circle cx="57.667" cy="-20.969" r="4.144" style="fill:#0e0e0e"/>
     <circle cx="71.481" cy="-20.969" r="4.144" style="fill:#0e0e0e"/>
     <path d="m 59.801278,-14.097329 v 1.432141 h 9.54556 v -1.432141 z" style="fill:#0e0e0e"/>
     <rect width="50.119" height="34.292" x="39.56" y="-10.94" rx="1.583" ry="1.583" style="fill-opacity:0.32857145"/>
     <rect style="fill:#50b24e" width="47.481" height="32.487" x="40.88" y="-11.25" rx="1.499" ry="1.499"/>
     <path d="m 64.61854,-3.0476139 c -2.338015,0 -4.233352,1.8953356 -4.233352,4.2333515 v 1.6933408 h -1.410565 c -0.62541,0 -1.129446,0.6842646 -1.129446,1.3543425 v 7.5968821 c 0,0.670081 0.504036,1.208821 1.129446,1.208821 h 11.287836 c 0.625406,0 1.129445,-0.53874 1.129445,-1.208821 V 4.2334209 c 0,-0.6700779 -0.509162,-1.4342255 -1.129445,-1.3543425 H 68.851892 V 1.1857376 c 0,-2.3380159 -1.895336,-4.2333515 -4.233352,-4.2333515 z m 0,1.6933418 c 1.40281,0 2.540012,1.13720103 2.540012,2.5400097 v 1.6602688 c 0,0 -0.0695,0.030642 -0.07441,0.033065 H 62.078538 V 1.1857345 c 0,-1.40280977 1.137201,-2.5400108 2.540011,-2.5400108 z" style="fill:#ffffff"/>
     <rect style="fill:#4bb749" width="6.053" height="4.872" x="34.79" y="23.13" rx="1.513" ry=".541"/>
     <rect width="6.053" height="4.872" x="88.25" y="23.13" rx="1.513" ry=".541" style="fill:#4bb749"/>
    </g>
   </g>
  </g>
 </g>
</svg>

<svg width="256" height="256" version="1.1" viewBox="0 0 67.73 67.73" xmlns="http://www.w3.org/2000/svg" xmlns:xlink="http://www.w3.org/1999/xlink">
 <defs>
  <linearGradient id="linearGradient1108" x1="296" x2="296" y1="-212" y2="202.4" gradientUnits="userSpaceOnUse">
   <stop style="stop-color:#ffffff" offset="0"/>
   <stop style="stop-color:#ffffff;stop-opacity:.09803922" offset=".135"/>
   <stop style="stop-color:#ffffff;stop-opacity:0" offset="1"/>
  </linearGradient>
  <clipPath id="clipPath1082-3-3675">
   <path d="M 361.9375,-212 C 507.2348,-212 528,-191.28677 528,-46.125 V 70.125 C 528,215.28618 507.2348,236 361.9375,236 H 214.0625 C 68.7652,236 48,215.28618 48,70.125 V -46.125 C 48,-191.28677 68.7652,-212 214.0625,-212 Z" style="fill:#8c59d9"/>
  </clipPath>
  <filter id="filter910" x="-.02" y="-.03" width="1.046" height="1.05" style="color-interpolation-filters:sRGB">
   <feGaussianBlur stdDeviation="2.32"/>
  </filter>
  <filter id="filter4569" x="-.01" y="-.01" width="1.023" height="1.025" style="color-interpolation-filters:sRGB">
   <feGaussianBlur stdDeviation="1.16"/>
  </filter>
 </defs>
 <g transform="translate(0,-229.26666)">
  <g transform="matrix(.12974173 0 0 .12974173 3.8344818 227.85345)" style="enable-background:new">
   <path d="m301.90773 44.402363c148.15296 0 169.32628 21.120327 169.32628 169.1351v118.53478c0 148.01417-21.17332 169.1351-169.32628 169.1351h-150.78132c-148.15297 0-169.32628-21.12093-169.32628-169.1351v-118.53478c0-148.01477 21.17331-169.1351 169.32628-169.1351z" style="fill:none;opacity:.2;stroke-linecap:round;stroke-linejoin:round;stroke-width:8.1572313;stroke:#000000"/>
   <path transform="matrix(2.0393079,0,0,2.0393079,-29.55473,37.126102)" d="m162.53675 3.5680001c72.64865 0 83.03125 10.356615 83.03125 82.937505v58.125005c0 72.58059-10.3826 82.9375-83.03125 82.9375h-73.937496c-72.648654 0-83.031254-10.35691-83.031254-82.9375v-58.125005c0-72.58089 10.3826-82.937505 83.031254-82.937505z" style="filter:url(#filter4569);opacity:.1"/>
   <path transform="matrix(2.0393079,0,0,2.0393079,-29.55473,37.126102)" d="m162.53675 5.5680001c72.64865 0 83.03125 10.356615 83.03125 82.937505v58.125005c0 72.58059-10.3826 82.9375-83.03125 82.9375h-73.937496c-72.648654 0-83.031254-10.35691-83.031254-82.9375v-58.125005c0-72.58089 10.3826-82.937505 83.031254-82.937505z" style="filter:url(#filter910);opacity:.2"/>
   <path d="m301.90773 44.402363c148.15296 0 169.32628 21.120327 169.32628 169.1351v118.53478c0 148.01417-21.17332 169.1351-169.32628 169.1351h-150.78132c-148.15297 0-169.32628-21.12093-169.32628-169.1351v-118.53478c0-148.01477 21.17331-169.1351 169.32628-169.1351z" style="fill:#f7f7f7"/>
   <path transform="matrix(1.0196539,0,0,1.0196539,-67.14326,260.569)" d="M 361.9375,-212 C 507.2348,-212 528,-191.28677 528,-46.125 V 70.125 C 528,215.28618 507.2348,236 361.9375,236 H 214.0625 C 68.7652,236 48,215.28618 48,70.125 V -46.125 C 48,-191.28677 68.7652,-212 214.0625,-212 Z" clip-path="url(#clipPath1082-3-3675)" style="fill:none;opacity:.5;stroke-linecap:round;stroke-linejoin:round;stroke-width:8;stroke:url(#linearGradient1108)"/>
   <g transform="matrix(4.4817672,0,0,4.4817672,-56.548536,252.59787)" style="stroke:#ffffff">
    <g transform="translate(-1.4146989,6.1396679)">
     <rect x="81.15" y="-12.68" width="16.576" height="35.914" rx="4.144" ry="3.991" style="fill:#4bb749"/>
     <rect x="31.42" y="-12.68" width="16.576" height="35.914" rx="4.144" ry="3.991" style="fill:#4bb749"/>
     <path d="m43.535492-12.681525h45.902341v45.85984c0 2.142701-1.706038 3.867695-3.825198 3.867695h-13.388178l-5.737791-8.287922h-3.825197l-5.737793 8.287922h-13.388184c-2.119153 0-3.825191-1.724994-3.825191-3.867695v-45.85984z" style="fill:#4bb749"/>
     <ellipse cx="64.574" cy="-15.168" rx="24.864" ry="25.14" style="fill:#4bb749"/>
     <path d="m64.574066-32.020009c-9.154587 0-16.575846 7.098874-16.575846 15.855778 0.0067 0.663004 0.05655 4.297922 0.149721 4.954931h32.85627c0.09183-0.657095 0.140493-4.292009 0.145683-4.954931 0-8.756904-7.421258-15.855778-16.575844-15.855778z" style="fill:#ffffff"/>
     <circle cx="57.667" cy="-20.969" r="4.144" style="fill:#0e0e0e"/>
     <circle cx="71.481" cy="-20.969" r="4.144" style="fill:#0e0e0e"/>
     <path d="m59.801278-14.097329v1.432141h9.54556v-1.432141z" style="fill:#0e0e0e"/>
     <rect x="39.56" y="-10.94" width="50.119" height="34.292" rx="1.583" ry="1.583" style="fill-opacity:.32857145"/>
     <rect x="40.88" y="-11.25" width="47.481" height="32.487" rx="1.499" ry="1.499" style="fill:#50b24e"/>
     <path d="m64.61854-3.0476139c-2.338015 0-4.233352 1.8953356-4.233352 4.2333515v1.6933408h-1.410565c-0.62541 0-1.129446 0.6842646-1.129446 1.3543425v7.5968821c0 0.670081 0.504036 1.208821 1.129446 1.208821h11.287836c0.625406 0 1.129445-0.53874 1.129445-1.208821v-7.5968821c0-0.6700779-0.509162-1.4342255-1.129445-1.3543425h-1.410567v-1.6933408c0-2.3380159-1.895336-4.2333515-4.233352-4.2333515zm0 1.6933418c1.40281 0 2.540012 1.137201 2.540012 2.5400097v1.6602688s-0.0695 0.030642-0.07441 0.033065h-5.005604v-1.6933369c0-1.4028098 1.137201-2.5400108 2.540011-2.5400108z" style="fill:#ffffff"/>
     <rect x="34.79" y="23.13" width="6.053" height="4.872" rx="1.513" ry=".541" style="fill:#4bb749"/>
     <rect x="88.25" y="23.13" width="6.053" height="4.872" rx="1.513" ry=".541" style="fill:#4bb749"/>
    </g>
   </g>
  </g>
 </g>
</svg>
